svg/u1f9d6_1f3fc_200d_2640.svg

<svg viewBox="0 0 128 128" xmlns="http://www.w3.org/2000/svg">
  <path id="steam_x5F_back_x5F_right_1_" d="M103.04,23.5 c4.24,11.31,3,25-8,32s-22,12-31,21c-4.28,4.28-19.36,20.49-19.38,47.5h57.91c0.16-0.17,0.3-0.34,0.46-0.5 c6.9-4.47,14.13-8.6,20.96-13.21V4H87.52C92.12,9.11,99.74,14.69,103.04,23.5z" enable-background="new " fill="#3BBCF7" opacity="0.45"/>
  <path id="steam_x5F_back_x5F_left" d="M4,46.67V124h13.54 c-3.61-5.52-6.13-11.42-4.5-18.5c2-10,12.01-13.98,20-18c22.56-11.36,27.25-29.5,28-50C61.51,24.81,56.87,12.84,48.16,4H12.17 C31.29,28,5.32,45.92,4,46.67z" enable-background="new " fill="#83D3F7" opacity="0.45"/>
  <g id="hairGroup_1_">
    <path id="hair_10_" d="M64.57,4.12c-41.01,0-40.68,37.92-40.68,38.52c0,24.56,1.88,59.25,11.71,72.9 c3.9,5.41,11.43,5.71,11.43,5.71L64,121.23l16.97,0.03c0,0,7.54-0.3,11.43-5.71c9.83-13.65,11.71-48.34,11.71-72.9 C104.1,42.04,105.58,4.12,64.57,4.12z" fill="#AB872F"/>
    <radialGradient id="hairHighlights_2_" cx="64.0002" cy="68.3091" gradientTransform="matrix(1 0 0 -1.1901 0 140.9834)" gradientUnits="userSpaceOnUse" r="47.5315">
      <stop offset="0.7936" stop-color="#BFA055" stop-opacity="0"/>
      <stop offset="1" stop-color="#BFA055"/>
    </radialGradient>
    <path id="hairHighlights_1_" d="M64.57,4.12c-41.01,0-40.68,37.92-40.68,38.52 c0,24.56,1.88,59.25,11.71,72.9c3.9,5.41,11.43,5.71,11.43,5.71L64,121.23l16.97,0.03c0,0,7.54-0.3,11.43-5.71 c9.83-13.65,11.71-48.34,11.71-72.9C104.1,42.04,105.58,4.12,64.57,4.12z" fill="url(#hairHighlights_2_)"/>
  </g>
  <radialGradient id="SVGID_1_" cx="63.8676" cy="7.7099" gradientTransform="matrix(1 0 0 -0.4628 0 123.8558)" gradientUnits="userSpaceOnUse" r="55.1025">
    <stop offset="0.8771" stop-color="#ECEFF1"/>
    <stop offset="1" stop-color="#B0BEC5"/>
  </radialGradient>
  <path d="M64.13,96c-0.04,0-0.09,0-0.13,0c-25.49,0.03-52,7.28-52,25.06V124h1h1h100h1h1v-2.94 C116,104.3,89.74,96,64.13,96z" fill="url(#SVGID_1_)"/>
  <linearGradient id="body_2_" gradientTransform="matrix(1 0 0 -1 0 128)" gradientUnits="userSpaceOnUse" x1="64.3222" x2="64.3222" y1="31.4788" y2="1.125">
    <stop offset="0.5" stop-color="#E0BB95"/>
    <stop offset="1" stop-color="#CCA47A"/>
  </linearGradient>
  <path id="body" d="M64.04,95.83c-29.63,0-21.57,19.55-16.57,28.17h34.32 C86.42,115.38,93.66,95.83,64.04,95.83z" fill="url(#body_2_)"/>
  <g id="robe_x5F_lapels">
    <path d="M50.04,104c1.92-6.37,13.37-6.54,12.51-6.36c0.53-0.07,2.11-0.07,2.64,0 c-0.85-0.19,10.59-0.01,12.51,6.36c1.92,6.35-2.16,13.62-5.7,20h13.92c4.07-8.93,7.49-20.18,3.7-25.58 c-4.48-6.39-11.34-8.67-25.63-8.67c-14.29,0-21.39,2.28-25.88,8.67c-3.79,5.4-0.37,16.66,3.7,25.58h13.92 C52.2,117.62,48.13,110.35,50.04,104z" fill="#ECEFF1"/>
  </g>
  <g id="robe_x5F_lapels_1_">
    <radialGradient id="SVGID_2_" cx="84.4229" cy="20.3121" gradientTransform="matrix(0.9946 0.1042 0.2204 -2.1033 -4.0216 141.6104)" gradientUnits="userSpaceOnUse" r="9.3039">
      <stop offset="0.6681" stop-color="#B0BEC5"/>
      <stop offset="1" stop-color="#ECEFF1" stop-opacity="0"/>
    </radialGradient>
    <path d="M89.36,123.93h-3.28c3.92-8.6,7.24-19.36,4.09-24.96c1.24,0.31,2.46,0.65,3.64,1.02 C95.74,106.71,92.74,116.25,89.36,123.93z" fill="url(#SVGID_2_)"/>
  </g>
  <g id="robe_x5F_lapels_2_">
    <radialGradient id="SVGID_3_" cx="753.091" cy="20.3121" gradientTransform="matrix(-0.9946 0.1042 -0.2204 -2.1033 796.7975 71.9375)" gradientUnits="userSpaceOnUse" r="9.3039">
      <stop offset="0.6681" stop-color="#B0BEC5"/>
      <stop offset="1" stop-color="#ECEFF1" stop-opacity="0"/>
    </radialGradient>
    <path d="M38.39,123.93h3.28c-3.92-8.6-7.24-19.36-4.09-24.96c-1.24,0.31-2.46,0.65-3.64,1.02 C32.01,106.71,35.01,116.25,38.39,123.93z" fill="url(#SVGID_3_)"/>
  </g>
  <linearGradient id="body_3_" gradientTransform="matrix(1 0 0 -1 0 128)" gradientUnits="userSpaceOnUse" x1="64.0005" x2="64.0005" y1="20.5" y2="38.4171">
    <stop offset="0.2423" stop-color="#E0BB95"/>
    <stop offset="1" stop-color="#CCA47A"/>
  </linearGradient>
  <path id="body_1_" d="M54.92,90.08v9.98c0,4.51,3.7,8.17,8.26,8.17h1.65c4.56,0,8.26-3.66,8.26-8.17 v-9.98L54.92,90.08z" fill="url(#body_3_)"/>
  <path id="tone_1_" d="M54.94,104.81c-0.27-0.96-0.38-1.93-0.45-2.89l-0.23-2.89 c-0.14-1.93-0.26-3.85-0.33-5.78c-0.02-0.55,0.41-1.02,0.97-1.04s1.02,0.41,1.03,0.96c0,0.02,0,0.05,0,0.07 c-0.07,1.93-0.19,3.85-0.33,5.78l-0.23,2.89C55.32,102.89,55.21,103.85,54.94,104.81z" fill="#BA8F63"/>
  <path id="tone" d="M73.06,104.81c-0.27-0.96-0.38-1.93-0.45-2.89l-0.23-2.89c-0.14-1.93-0.26-3.85-0.32-5.78 c-0.02-0.55,0.41-1.02,0.96-1.04s1.02,0.41,1.04,0.96c0,0.02,0,0.05,0,0.07c-0.07,1.93-0.19,3.85-0.32,5.78l-0.23,2.89 C73.44,102.89,73.34,103.85,73.06,104.81z" fill="#BA8F63"/>
  <path id="head" d="M64,16.04L64,16.04L64,16.04c-17.2,0-33.13,12.79-33.13,39.91 c0,21.78,13.49,34.67,25.23,38.83c2.8,0.99,5.5,1.49,7.9,1.49c2.38,0,5.07-0.49,7.85-1.47c11.76-4.14,25.28-17.03,25.28-38.84 C97.13,28.83,81.2,16.04,64,16.04z" fill="#E0BB95"/>
  <g id="hairGroup">
    <path id="hair_5_" d="M64.57,4.12c-41.01,0-40.68,37.92-40.68,38.52c0,7.76,0.19,16.53,0.75,25.32l6.72-0.02 c-0.06-2.92,1.99-20.97,8.08-22.34c22.36-5.03,35.01-16.89,35.01-16.89c3.29,7.18,13.58,14.19,17.27,16.86 c3.03,2.19,3.96,18.55,3.9,22.38h7.71c0-0.05,0.02-0.1,0.02-0.16c0.56-8.75,0.74-17.46,0.74-25.17 C104.1,42.04,105.58,4.12,64.57,4.12z" fill="#AB872F"/>
    <radialGradient id="hairHighlights_3_" cx="64.3334" cy="64.2846" gradientTransform="matrix(1 0 0 -1.2135 0 141.7279)" gradientUnits="userSpaceOnUse" r="49.788">
      <stop offset="0.7945" stop-color="#BFA055" stop-opacity="0"/>
      <stop offset="1" stop-color="#BFA055"/>
    </radialGradient>
    <path id="hairHighlights" d="M64.57,4.12c-41.01,0-40.68,37.92-40.68,38.52 c0,7.76,0.19,16.53,0.75,25.32l6.72-0.02c-0.06-2.92,1.99-20.97,8.08-22.34c22.36-5.03,35.01-16.89,35.01-16.89 c3.29,7.18,13.58,14.19,17.27,16.86c3.03,2.19,3.96,18.55,3.9,22.38h7.71c0-0.05,0.02-0.1,0.02-0.16 c0.56-8.75,0.74-17.46,0.74-25.17C104.1,42.04,105.58,4.12,64.57,4.12z" fill="url(#hairHighlights_3_)"/>
  </g>
  <path id="mouth" d="M72.42,76.14c-3.18,1.89-13.63,1.89-16.81,0c-1.83-1.09-3.7,0.58-2.94,2.24 c0.75,1.63,6.44,5.42,11.37,5.42s10.55-3.79,11.3-5.42C76.09,76.72,74.25,75.05,72.42,76.14z" fill="#6D4C41"/>
  <path id="nose" d="M67.86,68.06c-0.11-0.04-0.21-0.07-0.32-0.08h-7.08c-0.11,0.01-0.22,0.04-0.32,0.08 c-0.64,0.26-0.99,0.92-0.69,1.63c0.3,0.71,1.71,2.69,4.55,2.69s4.25-1.99,4.55-2.69C68.85,68.98,68.5,68.32,67.86,68.06z" fill="#C48E6A"/>
  <g id="eyes">
    <path d="M47.63,60.3c-2.06,0-3.9-0.5-5.18-1.29c-0.55-0.34-0.87-0.14-0.77,0.5c0.37,2.48,2.9,4.4,5.95,4.4 c3.06,0,5.58-1.92,5.95-4.4c0.1-0.64-0.22-0.84-0.77-0.5C51.53,59.8,49.69,60.3,47.63,60.3z" fill="#5D4037"/>
    <path d="M80.25,60.3c-2.06,0-3.9-0.5-5.18-1.29c-0.55-0.34-0.87-0.14-0.77,0.5c0.38,2.48,2.9,4.4,5.95,4.4 s5.58-1.92,5.95-4.4c0.1-0.64-0.22-0.84-0.77-0.5C84.15,59.8,82.3,60.3,80.25,60.3z" fill="#5D4037"/>
  </g>
  <g id="eyebrows">
    <path d="M54.99,50.82c-0.93-1.23-3.07-3.01-7.23-3.01s-6.31,1.79-7.23,3.01c-0.41,0.54-0.31,1.17-0.02,1.55 c0.26,0.35,1.04,0.68,1.9,0.39s2.54-1.16,5.35-1.18c2.81,0.02,4.49,0.89,5.35,1.18c0.86,0.29,1.64-0.03,1.9-0.39 C55.29,51.99,55.39,51.36,54.99,50.82z" fill="#AB872F"/>
    <path d="M87.48,50.82c-0.93-1.23-3.07-3.01-7.23-3.01s-6.31,1.79-7.23,3.01c-0.41,0.54-0.31,1.17-0.02,1.55 c0.26,0.35,1.04,0.68,1.9,0.39s2.54-1.16,5.35-1.18c2.81,0.02,4.49,0.89,5.35,1.18c0.86,0.29,1.64-0.03,1.9-0.39 C87.79,51.99,87.89,51.36,87.48,50.82z" fill="#AB872F"/>
  </g>
  <path id="steam_x5F_front_x5F_left" d="M48.04,60.75 c-6-5-16.19-7.77-20.88-5.77c-2.11,0.9-3.1,2.56-1.06,5.95c3.94,6.56,9.81,13.44,3.44,20.94C21.04,92.12,9.42,90.25,4,104.4V124 h26.63c1.25-27.5,24.29-23.94,25.5-42.79C56.82,70.51,53.04,64.75,48.04,60.75z" enable-background="new " fill="#FFFFFF" opacity="0.45"/>
  <path id="steam_x5F_front_x5F_right" d="M124,42.88 c-16.29-24.22-42.01-20.4-39.29-16.68c2.16,2.96,8.5,7.79,12.37,15.88c2.58,5.39,4.54,11.94,2.07,17.38 c-7.45,16.36-21.45,19.36-28.78,25.86c-4.96,4.39-14.41,14.66-11,38.67h21.58c0,0,2.23-13.06,25.49-21.37 C119.88,97.83,124,87.4,124,87.4V42.88z" enable-background="new " fill="#FFFFFF" opacity="0.35"/>
</svg>

<svg viewBox="0 0 128 128" xmlns="http://www.w3.org/2000/svg">
  <defs>
    <radialGradient id="SVGID_1_" cx="63.8676" cy="-259.912831" gradientTransform="matrix(1 0 0 -0.4628 0 0)" gradientUnits="userSpaceOnUse" r="55.1025">
      <stop offset="0.8771" stop-color="#ECEFF1"/>
      <stop offset="1" stop-color="#B0BEC5"/>
    </radialGradient>
    <radialGradient id="SVGID_2_" cx="95.180958" cy="-46.482656" gradientTransform="matrix(0.9946 0.1042 0.2204 -2.1033 0 0)" gradientUnits="userSpaceOnUse" r="9.3039">
      <stop offset="0.6681" stop-color="#B0BEC5"/>
      <stop offset="1" stop-color="#ECEFF1" stop-opacity="0"/>
    </radialGradient>
    <radialGradient id="SVGID_3_" cx="-31.836414" cy="-52.77635" gradientTransform="matrix(-0.9946 0.1042 -0.2204 -2.1033 0 0)" gradientUnits="userSpaceOnUse" r="9.3039">
      <stop offset="0.6681" stop-color="#B0BEC5"/>
      <stop offset="1" stop-color="#ECEFF1" stop-opacity="0"/>
    </radialGradient>
    <linearGradient id="body_2_" gradientTransform="matrix(1 0 0 -1 0 0)" gradientUnits="userSpaceOnUse" x1="64.3222" x2="64.3222" y1="-96.5212" y2="-126.875">
      <stop offset="0.5" stop-color="#E0BB95"/>
      <stop offset="1" stop-color="#CCA47A"/>
    </linearGradient>
    <linearGradient id="body_3_" gradientTransform="matrix(1 0 0 -1 0 0)" gradientUnits="userSpaceOnUse" x1="64.0005" x2="64.0005" y1="-107.5" y2="-89.5829">
      <stop offset="0.2423" stop-color="#E0BB95"/>
      <stop offset="1" stop-color="#CCA47A"/>
    </linearGradient>
    <radialGradient id="hairHighlights_2_" cx="64.0002" cy="-50.15439" gradientTransform="matrix(1 0 0 -1.1901 0 0)" gradientUnits="userSpaceOnUse" r="47.5315">
      <stop offset="0.7936" stop-color="#BFA055" stop-opacity="0"/>
      <stop offset="1" stop-color="#BFA055"/>
    </radialGradient>
    <radialGradient id="hairHighlights_3_" cx="64.3334" cy="-52.508066" gradientTransform="matrix(1 0 0 -1.2135 0 0)" gradientUnits="userSpaceOnUse" r="49.788">
      <stop offset="0.7945" stop-color="#BFA055" stop-opacity="0"/>
      <stop offset="1" stop-color="#BFA055"/>
    </radialGradient>
  </defs>
  <path id="steam_x5F_back_x5F_right_1_" d="M103.04,23.5 C107.28,34.81 106.04,48.5 95.04,55.5 C84.04,62.5 73.04,67.5 64.04,76.5 C59.76,80.78 44.68,96.99 44.66,124 L102.57,124 C102.73,123.83 102.87,123.66 103.03,123.5 C109.93,119.03 117.16,114.9 123.99,110.29 L123.99,4 L87.52,4 C92.12,9.11 99.74,14.69 103.04,23.5 Z" fill="#3BBCF7" opacity="0.45"/>
  <path id="steam_x5F_back_x5F_left" d="M4,46.67 L4,124 L17.54,124 C13.93,118.48 11.41,112.58 13.04,105.5 C15.04,95.5 25.05,91.52 33.04,87.5 C55.6,76.14 60.29,58 61.04,37.5 C61.51,24.81 56.87,12.84 48.16,4 L12.17,4 C31.29,28 5.32,45.92 4,46.67 Z" fill="#83D3F7" opacity="0.45"/>
  <path id="hair_10_" d="M64.57,4.12 C23.56,4.12 23.89,42.04 23.89,42.64 C23.89,67.2 25.77,101.89 35.6,115.54 C39.5,120.95 47.03,121.25 47.03,121.25 L64,121.23 L80.97,121.26 C80.97,121.26 88.51,120.96 92.4,115.55 C102.23,101.9 104.11,67.21 104.11,42.65 C104.1,42.04 105.58,4.12 64.57,4.12 Z" fill="#AB872F"/>
  <path id="hairHighlights_1_" d="M64.57,4.12 C23.56,4.12 23.89,42.04 23.89,42.64 C23.89,67.2 25.77,101.89 35.6,115.54 C39.5,120.95 47.03,121.25 47.03,121.25 L64,121.23 L80.97,121.26 C80.97,121.26 88.51,120.96 92.4,115.55 C102.23,101.9 104.11,67.21 104.11,42.65 C104.1,42.04 105.58,4.12 64.57,4.12 Z" fill="url(#hairHighlights_2_)"/>
  <path d="M64.13,96 C64.09,96 64.04,96 64,96 C38.51,96.03 12,103.28 12,121.06 L12,124 L13,124 L14,124 L114,124 L115,124 L116,124 L116,121.06 C116,104.3 89.74,96 64.13,96 Z" fill="url(#SVGID_1_)"/>
  <path id="body" d="M64.04,95.83 C34.41,95.83 42.47,115.38 47.47,124 L81.79,124 C86.42,115.38 93.66,95.83 64.04,95.83 Z" fill="url(#body_2_)"/>
  <path d="M50.04,104 C51.96,97.63 63.41,97.46 62.55,97.64 C63.08,97.57 64.66,97.57 65.19,97.64 C64.34,97.45 75.78,97.63 77.7,104 C79.62,110.35 75.54,117.62 72,124 L85.92,124 C89.99,115.07 93.41,103.82 89.62,98.42 C85.14,92.03 78.28,89.75 63.99,89.75 C49.7,89.75 42.6,92.03 38.11,98.42 C34.32,103.82 37.74,115.08 41.81,124 L55.73,124 C52.2,117.62 48.13,110.35 50.04,104 Z" fill="#ECEFF1"/>
  <path d="M89.36,123.93 L86.08,123.93 C90,115.33 93.32,104.57 90.17,98.97 C91.41,99.28 92.63,99.62 93.81,99.99 C95.74,106.71 92.74,116.25 89.36,123.93 Z" fill="url(#SVGID_2_)"/>
  <path d="M38.39,123.93 L41.67,123.93 C37.75,115.33 34.43,104.57 37.58,98.97 C36.34,99.28 35.12,99.62 33.94,99.99 C32.01,106.71 35.01,116.25 38.39,123.93 Z" fill="url(#SVGID_3_)"/>
  <path id="body_1_" d="M54.92,90.08 L54.92,100.06 C54.92,104.57 58.62,108.23 63.18,108.23 L64.83,108.23 C69.39,108.23 73.09,104.57 73.09,100.06 L73.09,90.08 L54.92,90.08 Z" fill="url(#body_3_)"/>
  <path id="tone_1_" d="M54.94,104.81 C54.67,103.85 54.56,102.88 54.49,101.92 L54.26,99.03 C54.12,97.1 54,95.18 53.93,93.25 C53.91,92.7 54.34,92.23 54.9,92.21 C55.46,92.19 55.92,92.62 55.93,93.17 C55.93,93.19 55.93,93.22 55.93,93.24 C55.86,95.17 55.74,97.09 55.6,99.02 L55.37,101.91 C55.32,102.89 55.21,103.85 54.94,104.81 Z" fill="#BA8F63"/>
  <path id="tone" d="M73.06,104.81 C72.79,103.85 72.68,102.88 72.61,101.92 L72.38,99.03 C72.24,97.1 72.12,95.18 72.06,93.25 C72.04,92.7 72.47,92.23 73.02,92.21 C73.57,92.19 74.04,92.62 74.06,93.17 C74.06,93.19 74.06,93.22 74.06,93.24 C73.99,95.17 73.87,97.09 73.74,99.02 L73.51,101.91 C73.44,102.89 73.34,103.85 73.06,104.81 Z" fill="#BA8F63"/>
  <path id="head" d="M64,16.04 L64,16.04 L64,16.04 C46.8,16.04 30.87,28.83 30.87,55.95 C30.87,77.73 44.36,90.62 56.1,94.78 C58.9,95.77 61.6,96.27 64,96.27 C66.38,96.27 69.07,95.78 71.85,94.8 C83.61,90.66 97.13,77.77 97.13,55.96 C97.13,28.83 81.2,16.04 64,16.04 Z" fill="#E0BB95"/>
  <path id="hair_5_" d="M64.57,4.12 C23.56,4.12 23.89,42.04 23.89,42.64 C23.89,50.4 24.08,59.17 24.64,67.96 L31.36,67.94 C31.3,65.02 33.35,46.97 39.44,45.6 C61.8,40.57 74.45,28.71 74.45,28.71 C77.74,35.89 88.03,42.9 91.72,45.57 C94.75,47.76 95.68,64.12 95.62,67.95 L103.33,67.95 C103.33,67.9 103.35,67.85 103.35,67.79 C103.91,59.04 104.09,50.33 104.09,42.62 C104.1,42.04 105.58,4.12 64.57,4.12 Z" fill="#AB872F"/>
  <path id="hairHighlights" d="M64.57,4.12 C23.56,4.12 23.89,42.04 23.89,42.64 C23.89,50.4 24.08,59.17 24.64,67.96 L31.36,67.94 C31.3,65.02 33.35,46.97 39.44,45.6 C61.8,40.57 74.45,28.71 74.45,28.71 C77.74,35.89 88.03,42.9 91.72,45.57 C94.75,47.76 95.68,64.12 95.62,67.95 L103.33,67.95 C103.33,67.9 103.35,67.85 103.35,67.79 C103.91,59.04 104.09,50.33 104.09,42.62 C104.1,42.04 105.58,4.12 64.57,4.12 Z" fill="url(#hairHighlights_3_)"/>
  <path id="mouth" d="M72.42,76.14 C69.24,78.03 58.79,78.03 55.61,76.14 C53.78,75.05 51.91,76.72 52.67,78.38 C53.42,80.01 59.11,83.8 64.04,83.8 C68.97,83.8 74.59,80.01 75.34,78.38 C76.09,76.72 74.25,75.05 72.42,76.14 Z" fill="#6D4C41"/>
  <path id="nose" d="M67.86,68.06 C67.75,68.02 67.65,67.99 67.54,67.98 L60.46,67.98 C60.35,67.99 60.24,68.02 60.14,68.06 C59.5,68.32 59.15,68.98 59.45,69.69 C59.75,70.4 61.16,72.38 64,72.38 C66.84,72.38 68.25,70.39 68.55,69.69 C68.85,68.98 68.5,68.32 67.86,68.06 Z" fill="#C48E6A"/>
  <path d="M47.63,60.3 C45.57,60.3 43.73,59.8 42.45,59.01 C41.9,58.67 41.58,58.87 41.68,59.51 C42.05,61.99 44.58,63.91 47.63,63.91 C50.69,63.91 53.21,61.99 53.58,59.51 C53.68,58.87 53.36,58.67 52.81,59.01 C51.53,59.8 49.69,60.3 47.63,60.3 Z" fill="#5D4037"/>
  <path d="M80.25,60.3 C78.19,60.3 76.35,59.8 75.07,59.01 C74.52,58.67 74.2,58.87 74.3,59.51 C74.68,61.99 77.2,63.91 80.25,63.91 C83.3,63.91 85.83,61.99 86.2,59.51 C86.3,58.87 85.98,58.67 85.43,59.01 C84.15,59.8 82.3,60.3 80.25,60.3 Z" fill="#5D4037"/>
  <path d="M54.99,50.82 C54.06,49.59 51.92,47.81 47.76,47.81 C43.6,47.81 41.45,49.6 40.53,50.82 C40.12,51.36 40.22,51.99 40.51,52.37 C40.77,52.72 41.55,53.05 42.41,52.76 C43.27,52.47 44.95,51.6 47.76,51.58 C50.57,51.6 52.25,52.47 53.11,52.76 C53.97,53.05 54.75,52.73 55.01,52.37 C55.29,51.99 55.39,51.36 54.99,50.82 Z" fill="#AB872F"/>
  <path d="M87.48,50.82 C86.55,49.59 84.41,47.81 80.25,47.81 C76.09,47.81 73.94,49.6 73.02,50.82 C72.61,51.36 72.71,51.99 73,52.37 C73.26,52.72 74.04,53.05 74.9,52.76 C75.76,52.47 77.44,51.6 80.25,51.58 C83.06,51.6 84.74,52.47 85.6,52.76 C86.46,53.05 87.24,52.73 87.5,52.37 C87.79,51.99 87.89,51.36 87.48,50.82 Z" fill="#AB872F"/>
  <path id="steam_x5F_front_x5F_left" d="M48.04,60.75 C42.04,55.75 31.85,52.98 27.16,54.98 C25.05,55.88 24.06,57.54 26.1,60.93 C30.04,67.49 35.91,74.37 29.54,81.87 C21.04,92.12 9.42,90.25 4,104.4 L4,124 L30.63,124 C31.88,96.5 54.92,100.06 56.13,81.21 C56.82,70.51 53.04,64.75 48.04,60.75 Z" fill="#FFFFFF" opacity="0.45"/>
  <path id="steam_x5F_front_x5F_right" d="M124,42.88 C107.71,18.66 81.99,22.48 84.71,26.2 C86.87,29.16 93.21,33.99 97.08,42.08 C99.66,47.47 101.62,54.02 99.15,59.46 C91.7,75.82 77.7,78.82 70.37,85.32 C65.41,89.71 55.96,99.98 59.37,123.99 L80.95,123.99 C80.95,123.99 83.18,110.93 106.44,102.62 C119.88,97.83 124,87.4 124,87.4 L124,42.88 Z" fill="#FFFFFF" opacity="0.35"/>
</svg>
